exports/population-by-country-gapminder+un_v6_850x600.svg

<svg xmlns="http://www.w3.org/2000/svg" version="1.1" style="background-color:#fff;-webkit-font-smoothing:antialiased" width="850" height="600" font-family="'Helvetica Neue',Helvetica,Arial,sans-serif" font-size="18" text-rendering="optimizeLegibility"><g class="ChartTab"><g class="HeaderView"><g opacity=".8" transform="matrix(.27 0 0 .27 778 15)"><a xmlns:xlink="http://www.w3.org/1999/xlink" xlink:href="https://ourworldindata.org" target="_blank"><g><path fill="#1B2543" d="M0 0h211.2v130.1H0z"/><path fill="#E63912" d="M0 112.2h211.2v17.9H0z"/><g><path fill="none" d="M1.2 12.3h210.2v99.2H1.2z"/><path fill="#FFF" d="M37.8 32.2c0 12.7-7.7 19.4-17.1 19.4-9.7 0-16.6-7.5-16.6-18.7 0-11.7 7.3-19.3 17.1-19.3 10.1.1 16.6 7.7 16.6 18.6zm-28.6.6c0 7.9 4.3 14.9 11.8 14.9 7.5 0 11.8-6.9 11.8-15.3 0-7.3-3.8-14.9-11.8-14.9-7.9 0-11.8 7.3-11.8 15.3zM62.7 43.8c0 2.7.1 5.1.2 7.2h-4.3l-.3-4.3h-.1c-1.3 2.1-4 4.9-8.8 4.9-4.2 0-9.1-2.3-9.1-11.6V24.6h4.8v14.6c0 5 1.5 8.4 5.9 8.4 3.2 0 5.5-2.2 6.3-4.4.3-.7.4-1.6.4-2.5V24.6h4.8v19.2zM67.3 32.8c0-3.1-.1-5.8-.2-8.2h4.2l.2 5.2h.2c1.2-3.5 4.1-5.8 7.3-5.8.5 0 .9.1 1.4.2v4.5c-.5-.1-1-.2-1.6-.2-3.4 0-5.8 2.6-6.5 6.2-.1.7-.2 1.4-.2 2.2V51h-4.8V32.8zM95.4 51L86 14.2h5l4.4 18.6c1.1 4.6 2.1 9.2 2.7 12.7h.1c.6-3.7 1.8-8 3-12.8l4.9-18.5h5l4.5 18.7c1 4.4 2 8.7 2.6 12.6h.1c.8-4 1.8-8.1 3-12.7l4.9-18.5h4.9L120.6 51h-5L111 31.9c-1.1-4.7-1.9-8.3-2.4-12h-.1c-.7 3.7-1.5 7.3-2.8 12L100.4 51h-5zM154.9 37.6c0 9.8-6.8 14-13.2 14-7.2 0-12.7-5.2-12.7-13.6 0-8.8 5.8-14 13.1-14 7.7 0 12.8 5.5 12.8 13.6zm-21 .3c0 5.8 3.3 10.1 8 10.1 4.6 0 8-4.3 8-10.3 0-4.5-2.2-10.1-7.9-10.1s-8.1 5.2-8.1 10.3zM158.2 32.8c0-3.1-.1-5.8-.2-8.2h4.2l.2 5.2h.2c1.2-3.5 4.1-5.8 7.3-5.8.5 0 .9.1 1.4.2v4.5c-.5-.1-1-.2-1.6-.2-3.4 0-5.8 2.6-6.5 6.2-.1.7-.2 1.4-.2 2.2V51h-4.8V32.8zM173.5 12.3h4.8V51h-4.8V12.3zM206.5 12.3v31.9c0 2.3.1 5 .2 6.8h-4.3l-.2-4.6h-.2c-1.5 2.9-4.7 5.2-9 5.2-6.4 0-11.3-5.4-11.3-13.4-.1-8.8 5.4-14.2 11.9-14.2 4 0 6.8 1.9 8 4h.1V12.3h4.8zm-4.8 23.1c0-.6-.1-1.4-.2-2a7 7 0 00-6.9-5.6c-5 0-7.9 4.4-7.9 10.2 0 5.3 2.6 9.8 7.8 9.8 3.2 0 6.2-2.1 7.1-5.7.2-.7.2-1.3.2-2.1v-4.6zM42.8 64c.1 1.6-1.1 2.9-3.1 2.9-1.7 0-2.9-1.3-2.9-2.9 0-1.7 1.3-3 3-3 1.9 0 3 1.3 3 3zm-5.4 33.8V71.4h4.8v26.4h-4.8zM47.5 78.6c0-2.7-.1-5-.2-7.1h4.3l.3 4.4h.1c1.3-2.5 4.4-5 8.8-5 3.7 0 9.4 2.2 9.4 11.2v15.8h-4.8V82.6c0-4.3-1.6-7.8-6.1-7.8-3.2 0-5.6 2.2-6.5 4.9-.2.6-.3 1.4-.3 2.2v15.9h-4.8V78.6zM84 61.6c2.9-.4 6.3-.8 10.1-.8 6.8 0 11.7 1.6 14.9 4.6 3.3 3 5.2 7.3 5.2 13.2 0 6-1.9 10.9-5.3 14.3-3.4 3.4-9.1 5.3-16.3 5.3-3.4 0-6.2-.2-8.6-.4V61.6zm4.8 32.5c1.2.2 3 .3 4.8.3 10.2 0 15.7-5.7 15.7-15.6.1-8.7-4.9-14.2-14.9-14.2-2.5 0-4.3.2-5.6.5v29zM132.1 97.8l-.4-3.3h-.2a9.79 9.79 0 01-8.1 3.9c-5.4 0-8.1-3.8-8.1-7.6 0-6.4 5.7-9.9 15.9-9.8v-.5c0-2.2-.6-6.1-6-6.1-2.5 0-5 .8-6.9 2l-1.1-3.2c2.2-1.4 5.4-2.3 8.7-2.3 8.1 0 10.1 5.5 10.1 10.8v9.9c0 2.3.1 4.5.4 6.3h-4.3zm-.7-13.4c-5.3-.1-11.2.8-11.2 5.9 0 3.1 2.1 4.6 4.5 4.6 3.4 0 5.6-2.2 6.4-4.4.2-.5.3-1 .3-1.5v-4.6zM146.6 63.9v7.6h6.9v3.7h-6.9v14.2c0 3.3.9 5.1 3.6 5.1 1.3 0 2.2-.2 2.8-.3l.2 3.6c-.9.4-2.4.7-4.3.7-2.2 0-4-.7-5.2-2-1.4-1.4-1.9-3.8-1.9-6.9V75.1h-4.1v-3.7h4.1v-6.3l4.8-1.2zM171.4 97.8l-.4-3.3h-.2a9.79 9.79 0 01-8.1 3.9c-5.4 0-8.1-3.8-8.1-7.6 0-6.4 5.7-9.9 15.9-9.8v-.5c0-2.2-.6-6.1-6-6.1-2.5 0-5 .8-6.9 2l-1.1-3.2c2.2-1.4 5.4-2.3 8.7-2.3 8.1 0 10.1 5.5 10.1 10.8v9.9c0 2.3.1 4.5.4 6.3h-4.3zm-.7-13.4c-5.3-.1-11.2.8-11.2 5.9 0 3.1 2.1 4.6 4.5 4.6 3.4 0 5.6-2.2 6.4-4.4.2-.5.3-1 .3-1.5v-4.6z"/></g></g></a></g><a href="https://ourworldindata.org/grapher/population-by-country-gapminder+un" target="_blank"><text font-size="25.2" x="15" y="35.2" fill="#555"><tspan x="15" y="35.16">Population by country</tspan></text></a></g><g class="LineChart"><defs><clipPath id="a"><path d="M87.6 0h830v973h-830z"/></clipPath></defs><g class="AxisBoxView"><g class="HorizontalAxis" fill="#666" text-anchor="middle" font-size="16.2"><text x="97.6" y="556.5">1700</text><text x="195.9" y="556.5">1750</text><text x="294.1" y="556.5">1800</text><text x="392.4" y="556.5">1850</text><text x="490.6" y="556.5">1900</text><text x="588.9" y="556.5">1950</text><text x="718.6" y="556.5">2016</text></g><g class="VerticalAxis" fill="#666" dominant-baseline="middle" text-anchor="end" font-size="16.2"><text x="92.6" y="535.3">0</text><text x="92.6" y="469">200 million</text><text x="92.6" y="402.7">400 million</text><text x="92.6" y="336.4">600 million</text><text x="92.6" y="270.1">800 million</text><text x="92.6" y="203.8">1 billion</text><text x="92.6" y="137.5">1.2 billion</text><text x="92.6" y="71.2">1.4 billion</text></g><g class="AxisGridLines"><path stroke="#ccc" d="M97.6 535.3h621"/><path stroke="#ddd" stroke-dasharray="3,2" d="M97.6 469h621M97.6 402.7h621M97.6 336.4h621M97.6 270.1h621M97.6 203.8h621M97.6 137.5h621M97.6 71.2h621"/></g></g><g clip-path="url(#a)"><g class="HeightedLegend clickable"><g class="legendMark"><text font-size="13.5" x="723.6" y="74" fill="#f6a324"><tspan x="723.6" y="74.05">China</tspan></text></g><g class="legendMark"><text font-size="13.5" x="723.6" y="100.3" fill="#34983f"><tspan x="723.6" y="100.35">India</tspan></text></g><g class="legendMark"><text font-size="13.5" x="723.6" y="432.6" fill="#ca2628"><tspan x="723.6" y="432.55">United States</tspan></text></g><g class="legendMark"><text font-size="13.5" x="723.6" y="470.6" fill="#3360a9"><tspan x="723.6" y="470.55">Brazil</tspan></text></g></g><g class="Lines"><g class="key-China_0"><path stroke="#f6a324" stroke-linecap="round" d="M98 490l196-61 39-20 2-1 2-1 2-1 2-1 2-1h2l2-1 2-1 2-1 2-1h4l2-1h33l2 1 2 1 2 1 2 2 2 1 2 1 2 1 2 1 2 1 2 1 2 1 2 1h2l2 1 2 1h2l2 1h2l2 1 2 1 2-1h4l2-1h4l1-1h4l2-1h4l2-1h2l2-1h4l2-1h2l2-1h2l2-1 2-1h2l2-1 2-1h2l2-1 2-1h2l2-1 2-1 2-1h2l2-1 1-1 2-1h2l2-1 2-1 2-1 2-2 2-2 2-1 2-2 2-1 2-2 2-2 2-1 2-2 2-1h2l2-1h2l2-1h2l2-1 2-1h2l2-1 2-1 2-1 2-1 2-1 1-1 2-1 2-1 2-1 2-1 2-1 2-1h2l2-1 2-1 2-1 2-1 2-1 2-1 2-1 2-3 2-5 2-5 2-3 2-3 2-3 2-3 2-3 2-3 2-3 2-4 2-3 2-4 1-4 2-5 2-5 2-6 2-7 2-7 2-7 2-7 2-7 2-7 2-6 2-6 2-6 2-5 2-5 2-5 2-5 2-4 2-5 2-5 2-4 2-6 2-6 2-6 2-7 2-7 2-7 2-6 2-6 1-5 2-4 2-4 2-4 2-3 2-3 2-3 2-2 2-3 2-3 2-2 2-3 2-2 2-3 2-2 2-3 2-2 2-3 2-2 2-3 2-3 2-2 2-3 2-2 2-2" fill="none" stroke-width="1.5"/></g><g class="key-India_0"><path stroke="#34983f" stroke-linecap="round" d="M98 489l196-10 39-2 99-12 84-13 32-8 23-15 10-7 2-1 2-2 2-1 2-7 2-2 2-2 2-3 2-2 2-2 2-3 2-2 2-3 2-3 2-3 2-3 2-3 1-3 2-3 2-4 2-3 2-4 2-3 2-4 2-4 2-4 2-5 2-4 2-5 2-5 2-4 2-5 2-5 2-5 2-6 2-5 2-6 2-5 2-6 2-6 2-6 2-5 2-6 2-6 2-6 2-6 1-6 2-6 2-6 2-6 2-6 2-6 2-6 2-7 2-6 2-6 2-6 2-6 2-6 2-6 2-6 2-6 2-6 2-5 2-6 2-5 2-5 2-6 2-5 2-5 2-5" fill="none" stroke-width="1.5"/></g><g class="key-United-States_0"><path stroke="#ca2628" stroke-linecap="round" d="M98 535l196-2 39-1h10l2-1h14l2-1h12l2-1h8l2-1h7l2-1h4l2-1h6l2-1h6l2-1h4l2-1h6l2-1h4l2-1h4l2-1h3l2-1h4l2-1h2l2-1h2l2-1h4l2-1h2l2-1h2l2-1h4l2-1h2l2-1h2l2-1h4l2-1h2l2-1 2-1h1l2-1h2l2-1h2l2-1h2l2-1 2-1h2l2-1h4l2-1h2l2-1h2l2-1 2-1h2l2-1h2l2-1h2l2-1h6l2-1h3l2-1h4l2-1h2l2-1h2l2-1h2l2-1 2-1h2l2-1 2-3 2-1 2-1 2-1 2-1 2-1 2-1 2-1 2-1 2-1 2-1 2-1h2l1-1 2-1 2-1 2-1h2l2-1 2-1h2l2-1h2l2-1 2-1h2l2-1 2-1h2l2-1 2-1 2-1h2l2-1 2-1h2l2-1 2-1 2-1 2-1h2l2-1 1-1 2-1 2-1 2-1 2-1 2-1 2-1 2-1 2-1 2-1 2-1 2-1 2-1h2l2-1 2-1 2-1 2-1 2-1 2-1 2-1h2l2-1 2-1h2" fill="none" stroke-width="1.5"/></g><g class="key-Brazil_0"><path stroke="#3360a9" stroke-linecap="round" d="M98 535l196-1h39l59-1 40-1h17l2-1h22l2-1h14l2-1h11l2-1h12l2-1h8l2-1h8l2-1h8l2-1h8l2-1h5l2-1h4l2-1h4l2-1h4l2-1h4l2-2h2l2-1h2l2-1h2l2-1 2-1h2l2-1 2-1h2l2-1 1-1 2-1h2l2-1 2-1 2-1h2l2-1 2-1 2-1 2-1h2l2-1 2-1 2-1 2-1 2-1 2-1 2-1 2-1 2-1 2-1 2-1 2-1h2l2-1 2-1 2-1 2-1 1-1 2-1 2-1h2l2-1 2-1 2-1 2-1 2-1 2-1h2l2-1 2-1 2-1h2l2-1 2-1h2l2-1 2-1h2l2-1h2l2-1h2" fill="none" stroke-width="1.5"/></g></g></g></g><g class="SourcesFooter" fill="#777"><g class="clickable" fill="#777"><text font-size="12.6" x="15" y="581.6"><tspan x="15" y="581.58">Source: Gapminder until 1949, UN Population Division from 1950-2016</tspan></text></g><text font-size="12.6" x="775.4" y="581.6"><tspan x="775.4" y="581.58"><a class="cclogo" href="http://creativecommons.org/licenses/by-sa/4.0/deed.en_US" target="_blank" fill="#777">CC BY-SA</a></tspan></text></g></g></svg>

<svg xmlns="http://www.w3.org/2000/svg" version="1.1" style="font-family: 'Helvetica Neue', Helvetica, Arial, sans-serif; font-size: 18px; background-color: white; text-rendering: optimizeLegibility; -webkit-font-smoothing: antialiased;" width="850" height="600"><g class="ChartTab"><g class="HeaderView"><g opacity="0.8" transform="translate(778, 15) scale(0.27)"><a xmlns:xlink="http://www.w3.org/1999/xlink" xlink:href="https://ourworldindata.org" target="_blank"><g><rect x="0" y="0" fill="#1B2543" width="211.2" height="130.1"/><rect x="0" y="112.2" fill="#E63912" width="211.2" height="17.9"/><g><rect x="1.2" y="12.3" fill="none" width="210.2" height="99.2"/><path fill="#FFFFFF" d="M37.8,32.2c0,12.7-7.7,19.4-17.1,19.4c-9.7,0-16.6-7.5-16.6-18.7c0-11.7,7.3-19.3,17.1-19.3 C31.3,13.7,37.8,21.3,37.8,32.2z M9.2,32.8c0,7.9,4.3,14.9,11.8,14.9c7.5,0,11.8-6.9,11.8-15.3c0-7.3-3.8-14.9-11.8-14.9 C13.1,17.5,9.2,24.8,9.2,32.8z"/><path fill="#FFFFFF" d="M62.7,43.8c0,2.7,0.1,5.1,0.2,7.2h-4.3l-0.3-4.3h-0.1c-1.3,2.1-4,4.9-8.8,4.9c-4.2,0-9.1-2.3-9.1-11.6 V24.6h4.8v14.6c0,5,1.5,8.4,5.9,8.4c3.2,0,5.5-2.2,6.3-4.4c0.3-0.7,0.4-1.6,0.4-2.5V24.6h4.8V43.8z"/><path fill="#FFFFFF" d="M67.3,32.8c0-3.1-0.1-5.8-0.2-8.2h4.2l0.2,5.2h0.2c1.2-3.5,4.1-5.8,7.3-5.8c0.5,0,0.9,0.1,1.4,0.2v4.5 c-0.5-0.1-1-0.2-1.6-0.2c-3.4,0-5.8,2.6-6.5,6.2c-0.1,0.7-0.2,1.4-0.2,2.2V51h-4.8V32.8z"/><path fill="#FFFFFF" d="M95.4,51l-9.4-36.8h5l4.4,18.6c1.1,4.6,2.1,9.2,2.7,12.7h0.1c0.6-3.7,1.8-8,3-12.8l4.9-18.5h5l4.5,18.7 c1,4.4,2,8.7,2.6,12.6h0.1c0.8-4,1.8-8.1,3-12.7l4.9-18.5h4.9L120.6,51h-5L111,31.9c-1.1-4.7-1.9-8.3-2.4-12h-0.1 c-0.7,3.7-1.5,7.3-2.8,12L100.4,51H95.4z"/><path fill="#FFFFFF" d="M154.9,37.6c0,9.8-6.8,14-13.2,14c-7.2,0-12.7-5.2-12.7-13.6c0-8.8,5.8-14,13.1-14 C149.8,24,154.9,29.5,154.9,37.6z M133.9,37.9c0,5.8,3.3,10.1,8,10.1c4.6,0,8-4.3,8-10.3c0-4.5-2.2-10.1-7.9-10.1 C136.3,27.6,133.9,32.8,133.9,37.9z"/><path fill="#FFFFFF" d="M158.2,32.8c0-3.1-0.1-5.8-0.2-8.2h4.2l0.2,5.2h0.2c1.2-3.5,4.1-5.8,7.3-5.8c0.5,0,0.9,0.1,1.4,0.2v4.5 c-0.5-0.1-1-0.2-1.6-0.2c-3.4,0-5.8,2.6-6.5,6.2c-0.1,0.7-0.2,1.4-0.2,2.2V51h-4.8V32.8z"/><path fill="#FFFFFF" d="M173.5,12.3h4.8V51h-4.8V12.3z"/><path fill="#FFFFFF" d="M206.5,12.3v31.9c0,2.3,0.1,5,0.2,6.8h-4.3l-0.2-4.6H202c-1.5,2.9-4.7,5.2-9,5.2 c-6.4,0-11.3-5.4-11.3-13.4c-0.1-8.8,5.4-14.2,11.9-14.2c4,0,6.8,1.9,8,4h0.1V12.3H206.5z M201.7,35.4c0-0.6-0.1-1.4-0.2-2 c-0.7-3.1-3.3-5.6-6.9-5.6c-5,0-7.9,4.4-7.9,10.2c0,5.3,2.6,9.8,7.8,9.8c3.2,0,6.2-2.1,7.1-5.7c0.2-0.7,0.2-1.3,0.2-2.1V35.4z"/><path fill="#FFFFFF" d="M42.8,64c0.1,1.6-1.1,2.9-3.1,2.9c-1.7,0-2.9-1.3-2.9-2.9c0-1.7,1.3-3,3-3C41.7,61,42.8,62.3,42.8,64z M37.4,97.8V71.4h4.8v26.4H37.4z"/><path fill="#FFFFFF" d="M47.5,78.6c0-2.7-0.1-5-0.2-7.1h4.3l0.3,4.4h0.1c1.3-2.5,4.4-5,8.8-5c3.7,0,9.4,2.2,9.4,11.2v15.8h-4.8 V82.6c0-4.3-1.6-7.8-6.1-7.8c-3.2,0-5.6,2.2-6.5,4.9c-0.2,0.6-0.3,1.4-0.3,2.2v15.9h-4.8V78.6z"/><path fill="#FFFFFF" d="M84,61.6c2.9-0.4,6.3-0.8,10.1-0.8c6.8,0,11.7,1.6,14.9,4.6c3.3,3,5.2,7.3,5.2,13.2c0,6-1.9,10.9-5.3,14.3 c-3.4,3.4-9.1,5.3-16.3,5.3c-3.4,0-6.2-0.2-8.6-0.4V61.6z M88.8,94.1c1.2,0.2,3,0.3,4.8,0.3c10.2,0,15.7-5.7,15.7-15.6 c0.1-8.7-4.9-14.2-14.9-14.2c-2.5,0-4.3,0.2-5.6,0.5V94.1z"/><path fill="#FFFFFF" d="M132.1,97.8l-0.4-3.3h-0.2c-1.5,2.1-4.3,3.9-8.1,3.9c-5.4,0-8.1-3.8-8.1-7.6c0-6.4,5.7-9.9,15.9-9.8v-0.5 c0-2.2-0.6-6.1-6-6.1c-2.5,0-5,0.8-6.9,2l-1.1-3.2c2.2-1.4,5.4-2.3,8.7-2.3c8.1,0,10.1,5.5,10.1,10.8v9.9c0,2.3,0.1,4.5,0.4,6.3 H132.1z M131.4,84.4c-5.3-0.1-11.2,0.8-11.2,5.9c0,3.1,2.1,4.6,4.5,4.6c3.4,0,5.6-2.2,6.4-4.4c0.2-0.5,0.3-1,0.3-1.5V84.4z"/><path fill="#FFFFFF" d="M146.6,63.9v7.6h6.9v3.7h-6.9v14.2c0,3.3,0.9,5.1,3.6,5.1c1.3,0,2.2-0.2,2.8-0.3l0.2,3.6 c-0.9,0.4-2.4,0.7-4.3,0.7c-2.2,0-4-0.7-5.2-2c-1.4-1.4-1.9-3.8-1.9-6.9V75.1h-4.1v-3.7h4.1v-6.3L146.6,63.9z"/><path fill="#FFFFFF" d="M171.4,97.8l-0.4-3.3h-0.2c-1.5,2.1-4.3,3.9-8.1,3.9c-5.4,0-8.1-3.8-8.1-7.6c0-6.4,5.7-9.9,15.9-9.8v-0.5 c0-2.2-0.6-6.1-6-6.1c-2.5,0-5,0.8-6.9,2l-1.1-3.2c2.2-1.4,5.4-2.3,8.7-2.3c8.1,0,10.1,5.5,10.1,10.8v9.9c0,2.3,0.1,4.5,0.4,6.3 H171.4z M170.7,84.4c-5.3-0.1-11.2,0.8-11.2,5.9c0,3.1,2.1,4.6,4.5,4.6c3.4,0,5.6-2.2,6.4-4.4c0.2-0.5,0.3-1,0.3-1.5V84.4z"/></g></g></a></g><a href="https://ourworldindata.org/grapher/population-by-country-gapminder+un" target="_blank"><text font-size="25.20" x="15.0" y="35.2" fill="#555"><tspan x="15" y="35.160000000000004">Population by country</tspan></text></a></g><g class="LineChart"><defs><clipPath id="boundsClip-12"><rect x="87.598" y="0" width="830" height="973"></rect></clipPath></defs><g class="AxisBoxView"><g class="HorizontalAxis"><text x="97.6" y="556.5" fill="#666" text-anchor="middle" font-size="16.2">1700</text><text x="195.9" y="556.5" fill="#666" text-anchor="middle" font-size="16.2">1750</text><text x="294.1" y="556.5" fill="#666" text-anchor="middle" font-size="16.2">1800</text><text x="392.4" y="556.5" fill="#666" text-anchor="middle" font-size="16.2">1850</text><text x="490.6" y="556.5" fill="#666" text-anchor="middle" font-size="16.2">1900</text><text x="588.9" y="556.5" fill="#666" text-anchor="middle" font-size="16.2">1950</text><text x="718.6" y="556.5" fill="#666" text-anchor="middle" font-size="16.2">2016</text></g><g class="VerticalAxis"><text x="92.60" y="535.3" fill="#666" dominant-baseline="middle" text-anchor="end" font-size="16.2">0</text><text x="92.60" y="469" fill="#666" dominant-baseline="middle" text-anchor="end" font-size="16.2">200 million</text><text x="92.60" y="402.7" fill="#666" dominant-baseline="middle" text-anchor="end" font-size="16.2">400 million</text><text x="92.60" y="336.4" fill="#666" dominant-baseline="middle" text-anchor="end" font-size="16.2">600 million</text><text x="92.60" y="270.1" fill="#666" dominant-baseline="middle" text-anchor="end" font-size="16.2">800 million</text><text x="92.60" y="203.8" fill="#666" dominant-baseline="middle" text-anchor="end" font-size="16.2">1 billion</text><text x="92.60" y="137.5" fill="#666" dominant-baseline="middle" text-anchor="end" font-size="16.2">1.2 billion</text><text x="92.60" y="71.2" fill="#666" dominant-baseline="middle" text-anchor="end" font-size="16.2">1.4 billion</text></g><g class="AxisGridLines"><line x1="97.60" y1="535.3" x2="718.60" y2="535.3" stroke="#ccc"></line><line x1="97.60" y1="469" x2="718.60" y2="469" stroke="#ddd" stroke-dasharray="3,2"></line><line x1="97.60" y1="402.7" x2="718.60" y2="402.7" stroke="#ddd" stroke-dasharray="3,2"></line><line x1="97.60" y1="336.4" x2="718.60" y2="336.4" stroke="#ddd" stroke-dasharray="3,2"></line><line x1="97.60" y1="270.1" x2="718.60" y2="270.1" stroke="#ddd" stroke-dasharray="3,2"></line><line x1="97.60" y1="203.8" x2="718.60" y2="203.8" stroke="#ddd" stroke-dasharray="3,2"></line><line x1="97.60" y1="137.5" x2="718.60" y2="137.5" stroke="#ddd" stroke-dasharray="3,2"></line><line x1="97.60" y1="71.2" x2="718.60" y2="71.2" stroke="#ddd" stroke-dasharray="3,2"></line></g></g><g clip-path="url(#boundsClip-12)"><g class="HeightedLegend clickable"><g class="legendMark"><rect x="718.595" y="63.25" width="70.37" height="13.5" fill="#fff" opacity="0"></rect><text font-size="13.50" x="723.6" y="74.0" fill="#f6a324"><tspan x="723.595" y="74.05">China</tspan></text></g><g class="legendMark"><rect x="718.595" y="89.55" width="64.43" height="13.5" fill="#fff" opacity="0"></rect><text font-size="13.50" x="723.6" y="100.3" fill="#34983f"><tspan x="723.595" y="100.35">India</tspan></text></g><g class="legendMark"><rect x="718.595" y="421.75" width="116.405" height="13.5" fill="#fff" opacity="0"></rect><text font-size="13.50" x="723.6" y="432.6" fill="#ca2628"><tspan x="723.595" y="432.55">United States</tspan></text></g><g class="legendMark"><rect x="718.595" y="459.75" width="68.75" height="13.5" fill="#fff" opacity="0"></rect><text font-size="13.50" x="723.6" y="470.6" fill="#3360a9"><tspan x="723.595" y="470.55">Brazil</tspan></text></g></g><g class="Lines"><rect x="98" y="70" width="621" height="465" fill="rgba(255,255,255,0)" opacity="0"></rect><g class="key-China_0"><path stroke="#f6a324" stroke-linecap="round" d="M98 490L294 429L333 409L335 408L337 407L339 406L341 405L343 404L345 404L347 403L349 402L351 401L353 400L355 400L357 400L359 399L361 399L363 399L365 399L367 399L369 399L371 399L373 399L375 399L377 399L379 399L381 399L383 399L385 399L387 399L388 399L390 399L392 399L394 400L396 401L398 402L400 404L402 405L404 406L406 407L408 408L410 409L412 410L414 411L416 412L418 412L420 413L422 414L424 414L426 415L428 415L430 416L432 417L434 416L436 416L438 416L440 415L442 415L444 415L445 414L447 414L449 414L451 413L453 413L455 413L457 412L459 412L461 411L463 411L465 411L467 410L469 410L471 409L473 409L475 408L477 407L479 407L481 406L483 405L485 405L487 404L489 403L491 403L493 402L495 401L497 400L499 400L501 399L502 398L504 397L506 397L508 396L510 395L512 394L514 392L516 390L518 389L520 387L522 386L524 384L526 382L528 381L530 379L532 378L534 378L536 377L538 377L540 376L542 376L544 375L546 374L548 374L550 373L552 372L554 371L556 370L558 369L559 368L561 367L563 366L565 365L567 364L569 363L571 362L573 362L575 361L577 360L579 359L581 358L583 357L585 356L587 355L589 352L591 347L593 342L595 339L597 336L599 333L601 330L603 327L605 324L607 321L609 317L611 314L613 310L614 306L616 301L618 296L620 290L622 283L624 276L626 269L628 262L630 255L632 248L634 242L636 236L638 230L640 225L642 220L644 215L646 210L648 206L650 201L652 196L654 192L656 186L658 180L660 174L662 167L664 160L666 153L668 147L670 141L671 136L673 132L675 128L677 124L679 121L681 118L683 115L685 113L687 110L689 107L691 105L693 102L695 100L697 97L699 95L701 92L703 90L705 87L707 85L709 82L711 79L713 77L715 74L717 72L719 70" fill="none" stroke-width="1.5"></path></g><g class="key-India_0"><path stroke="#34983f" stroke-linecap="round" d="M98 489L294 479L333 477L432 465L516 452L548 444L571 429L581 422L583 421L585 419L587 418L589 411L591 409L593 407L595 404L597 402L599 400L601 397L603 395L605 392L607 389L609 386L611 383L613 380L614 377L616 374L618 370L620 367L622 363L624 360L626 356L628 352L630 348L632 343L634 339L636 334L638 329L640 325L642 320L644 315L646 310L648 304L650 299L652 293L654 288L656 282L658 276L660 270L662 265L664 259L666 253L668 247L670 241L671 235L673 229L675 223L677 217L679 211L681 205L683 199L685 192L687 186L689 180L691 174L693 168L695 162L697 156L699 150L701 144L703 138L705 133L707 127L709 122L711 117L713 111L715 106L717 101L719 96" fill="none" stroke-width="1.5"></path></g><g class="key-United-States_0"><path stroke="#ca2628" stroke-linecap="round" d="M98 535L294 533L333 532L335 532L337 532L339 532L341 532L343 532L345 531L347 531L349 531L351 531L353 531L355 531L357 531L359 531L361 530L363 530L365 530L367 530L369 530L371 530L373 530L375 529L377 529L379 529L381 529L383 529L385 528L387 528L388 528L390 528L392 528L394 527L396 527L398 527L400 526L402 526L404 526L406 526L408 525L410 525L412 525L414 525L416 524L418 524L420 524L422 523L424 523L426 523L428 523L430 522L432 522L434 522L436 521L438 521L440 521L442 520L444 520L445 520L447 519L449 519L451 519L453 518L455 518L457 517L459 517L461 516L463 516L465 516L467 515L469 515L471 514L473 514L475 513L477 513L479 513L481 512L483 512L485 511L487 511L489 510L491 510L493 510L495 509L497 509L499 508L501 507L502 507L504 506L506 506L508 505L510 505L512 504L514 504L516 503L518 502L520 502L522 501L524 501L526 501L528 500L530 500L532 499L534 499L536 498L538 497L540 497L542 496L544 496L546 495L548 495L550 494L552 494L554 494L556 494L558 493L559 493L561 493L563 492L565 492L567 492L569 491L571 491L573 490L575 490L577 489L579 489L581 488L583 487L585 487L587 486L589 483L591 482L593 481L595 480L597 479L599 478L601 477L603 476L605 475L607 474L609 473L611 472L613 472L614 471L616 470L618 469L620 468L622 468L624 467L626 466L628 466L630 465L632 465L634 464L636 463L638 463L640 462L642 461L644 461L646 460L648 459L650 458L652 458L654 457L656 456L658 456L660 455L662 454L664 453L666 452L668 452L670 451L671 450L673 449L675 448L677 447L679 446L681 445L683 444L685 443L687 442L689 441L691 440L693 439L695 438L697 438L699 437L701 436L703 435L705 434L707 433L709 432L711 431L713 431L715 430L717 429L719 429" fill="none" stroke-width="1.5"></path></g><g class="key-Brazil_0"><path stroke="#3360a9" stroke-linecap="round" d="M98 535L294 534L333 534L392 533L432 532L434 532L436 532L438 532L440 532L442 532L444 532L445 532L447 532L449 532L451 531L453 531L455 531L457 531L459 531L461 531L463 531L465 531L467 531L469 531L471 531L473 531L475 530L477 530L479 530L481 530L483 530L485 530L487 530L489 530L491 529L493 529L495 529L497 529L499 529L501 529L502 529L504 528L506 528L508 528L510 528L512 528L514 528L516 528L518 527L520 527L522 527L524 527L526 527L528 526L530 526L532 526L534 526L536 526L538 525L540 525L542 525L544 525L546 525L548 524L550 524L552 524L554 524L556 524L558 523L559 523L561 523L563 523L565 522L567 522L569 522L571 521L573 521L575 521L577 520L579 520L581 520L583 519L585 519L587 519L589 517L591 517L593 516L595 516L597 515L599 515L601 514L603 513L605 513L607 512L609 511L611 511L613 510L614 509L616 508L618 508L620 507L622 506L624 505L626 505L628 504L630 503L632 502L634 501L636 501L638 500L640 499L642 498L644 497L646 496L648 495L650 494L652 493L654 492L656 491L658 490L660 489L662 489L664 488L666 487L668 486L670 485L671 484L673 483L675 482L677 482L679 481L681 480L683 479L685 478L687 477L689 476L691 476L693 475L695 474L697 473L699 473L701 472L703 471L705 471L707 470L709 469L711 469L713 468L715 468L717 467L719 467" fill="none" stroke-width="1.5"></path></g></g></g></g><g style="fill: #777;" class="SourcesFooter"><g style="fill: #777;" class="clickable"><text font-size="12.60" x="15.0" y="581.6"><tspan x="15" y="581.58">Source: Gapminder until 1949, UN Population Division from 1950-2016</tspan></text></g><text font-size="12.60" x="775.4" y="581.6"><tspan x="775.402" y="581.58"><a style="fill: #777;" class="cclogo" href="http://creativecommons.org/licenses/by-sa/4.0/deed.en_US" target="_blank">CC BY-SA</a></tspan></text></g></g></svg>
